svg/fluentui-system-icons/ic_fluent_star_arrow_back_16_regular.svg

<svg width="16" height="16" viewBox="0 0 16 16" fill="none" xmlns="http://www.w3.org/2000/svg">
<path d="M8.80802 2.10179C8.47789 1.43287 7.52403 1.43287 7.1939 2.10179L5.67281 5.18384L2.27156 5.67807C1.53336 5.78534 1.23861 6.69251 1.77277 7.2132L4.23394 9.61224L3.65294 12.9997C3.52684 13.735 4.29853 14.2956 4.95879 13.9485L5.86977 13.4696C5.69022 13.1902 5.53527 12.8935 5.40797 12.5826L4.6728 12.9691L5.01845 10.9538C5.00623 10.8041 5 10.6528 5 10.5C5 10.0502 5.05401 9.61293 5.15589 9.19444C5.11059 9.09807 5.04796 9.00924 4.9696 8.93285L2.61588 6.63854L5.86864 6.16589C6.16178 6.12329 6.41519 5.93918 6.54628 5.67355L8.00096 2.72605L9.19954 5.15465C9.53579 5.07313 9.88411 5.02251 10.2413 5.00598L8.80802 2.10179ZM10.5 15C12.9853 15 15 12.9853 15 10.5C15 8.01472 12.9853 6 10.5 6C8.01472 6 6 8.01472 6 10.5C6 12.9853 8.01472 15 10.5 15ZM9.60355 8.60355L8.70711 9.5H10.25C11.7688 9.5 13 10.7312 13 12.25V12.5C13 12.7761 12.7761 13 12.5 13C12.2239 13 12 12.7761 12 12.5V12.25C12 11.2835 11.2165 10.5 10.25 10.5H8.70711L9.60355 11.3964C9.79882 11.5917 9.79882 11.9083 9.60355 12.1036C9.40829 12.2988 9.09171 12.2988 8.89645 12.1036L7.14433 10.3514C7.09744 10.304 7.06198 10.2495 7.03794 10.1914C7.01349 10.1324 7 10.0678 7 10C7 9.93221 7.01349 9.86756 7.03794 9.80861C7.06234 9.74964 7.09851 9.69439 7.14645 9.64645L8.89645 7.89645C9.09171 7.70118 9.40829 7.70118 9.60355 7.89645C9.79882 8.09171 9.79882 8.40829 9.60355 8.60355Z" fill="#212121"/>
</svg>

<svg xmlns="http://www.w3.org/2000/svg" width="16" height="16"><path d="M8.808 2.102a.9.9 0 0 0-1.614 0L5.673 5.184l-3.401.494a.9.9 0 0 0-.5 1.535l2.462 2.4L3.653 13a.9.9 0 0 0 1.306.948l.91-.478a5.486 5.486 0 0 1-.461-.887l-.735.386.345-2.015a5.576 5.576 0 0 1 .138-1.76.9.9 0 0 0-.186-.261L2.616 6.639l3.253-.473a.9.9 0 0 0 .677-.492l1.455-2.948L9.2 5.155a5.497 5.497 0 0 1 1.041-.149L8.808 2.102ZM10.5 15a4.5 4.5 0 1 0 0-9 4.5 4.5 0 0 0 0 9Zm-.896-6.396-.897.896h1.543A2.75 2.75 0 0 1 13 12.25v.25a.5.5 0 0 1-1 0v-.25a1.75 1.75 0 0 0-1.75-1.75H8.707l.897.896a.5.5 0 0 1-.708.708L7.144 10.35a.498.498 0 0 1 .002-.705l1.75-1.75a.5.5 0 1 1 .708.708Z"/></svg>
